X:1
T:Jesus Is the Sweetest Name I Know
T:Jesus Is the Sweetest Name I Know
T:Lela B. Long
T:Lela B. Long, 1924
T:Public Domain Courtesy of the Cyber Hymnal™
T:Public Domain Courtesy of the Cyber Hymnal™
C:Lela B. Long
Z:Public Domain
Z:Courtesy of the Cyber Hymnal™
%%score ( 1 2 ) ( 3 4 )
L:1/8
Q:1/4=105
M:4/4
K:D
V:1 treble 
V:2 treble 
V:3 bass 
V:4 bass 
V:1
 [DF]2 | [DF][DF][D^E][DF] [DG][DG][DF][C=E] | A6 [FA]2 | [FA][FA][^E^G][FA] [=GB][GB][FA][=EG] | %4
w: 1.~There|have been names that I have loved to|hear, But|nev- er has there been a name so|
w: 2.~There|is no name in earth or Heav’n a-|bove, That|we should give such hon- or and such|
w: 3.~And|some day I shall see Him face to|face To|thank and praise Him for His wond- rous|
 F6 z2 | [CE][CF] [CG]>[CF] [CE]4 | [DF][DG] [DB]>[DA] [DA]3 [DF] | [CE][CE][CE][CE] [DF]2 [D^G]2 | %8
w: dear|To this heart of mine,|as the name di- vine, The|pre- cious, pre- cious name of|
w: love|As the bless- èd name,|let us all ac- claim, That|wond- rous, glor- ious name of|
w: grace,|Which He gave to me,|when He made me free, The|bless- èd Son of God called|
 [DB]2 [CEA]4 z2 ||"^Refrain" [DA][DA][D^G][DA] [Dd][Dd][Gc][GB] | [FA]6 [FA][GB] | %11
w: Je- sus.|||
w: Je- sus.|Je- sus is the sweet- est name I|know, And He’s|
w: Je- sus.|||
 [FA]>[EG] [EG]4 [GB][Gc] | [GB]>[FA] [FA]4 [FA]2 | [FA][FA][^E^G][FA] [=Gd][Gd][Gc][GB] | %14
w: |||
w: just the same as His|love- ly name, And|that’s the rea- son why I love Him|
w: |||
 [FA]6"^rall." [DF]2 | [DE][DE][DE][^DF] [EG][EG][CF][CE] | [A,D]6 |] %17
w: |||
w: so; Oh,|Je- sus is the sweet- est name I|know.|
w: |||
V:2
 x2 | x8 | (D2 C2 D2) x2 | x8 | (D2 A,2 D2) x2 | x8 | x8 | x8 | x8 || x8 | x8 | x8 | x8 | x8 | x8 | %15
 x8 | x6 |] %17
V:3
 [D,A,]2 | [D,A,][D,A,][D,^G,][D,A,] [D,B,][D,B,][D,A,][=G,A,] | %2
 ([F,A,]2 [E,G,]2 [D,F,]2) [D,A,]2 | [D,A,][D,A,][D,B,][D,A,] [D,G,][D,A,][D,B,][A,C] | %4
 ([D,A,]2 [D,F,]2 [F,A,]2) z2 | [A,,G,][A,,F,] [A,,E,]>[A,,F,] (G,2 A,2) | %6
 [D,A,][D,B,] [D,G,]>[D,F,] [D,F,]3 [D,A,] | [E,A,][E,A,][E,A,][E,A,] [E,B,]2 [E,B,]2 | %8
 [E,^G,]2 (A,2 =G,2) z2 || [D,F,][D,F,][D,^E,][D,F,] [F,A,][F,A,][D,B,][D,C] | [D,D]6 [D,D][D,D] | %11
 [A,C]>[A,C] [A,C]4 [A,D][A,E] | [D,D]>[D,D] [D,D]4 [D,D]2 | %13
 [D,A,][D,A,][D,B,][D,A,] [D,B,][D,B,][D,B,][D,C] | [D,D]6 [A,=C]2 | %15
 [G,B,][G,B,][G,B,][F,A,] [E,B,][E,B,][A,,A,][A,,G,] | [D,F,]6 |] %17
V:4
 x2 | x8 | x8 | x8 | x8 | x4 A,,4 | x8 | x8 | x2 A,,4 x2 || x8 | x8 | x8 | x8 | x8 | x8 | x8 | %16
 x6 |] %17

